!!!!SEGMENT: pl-sa--554-a-ix-34--002_anonim--preludium.krn
!!!cenid: 18xx:565
!!!COM: Anonim
!!!COM-rismID: pe30004985
!!!CDT:
!!!CNT:
!!!OTL: Preludium
!!!PDT:
!!!AGN: Secular; Prelude
!!!SMS-siglum: PL-SA
!!!SMS-shelfmark: 554/A IX 34
!!!SMS-shelfwork: 002 W
!!!SMS-variant:
!!!SMS-altvar:
!!!NIFC-rismSourceID: 1001069592
!!!NIFC-rismChildID: 1001069594
!!!NIFC-islandoraID: none
!!!URL-pdf-islandora:
!!!URL-scan: https://bc.bdsandomierz.pl/dlibra/publication/1310/edition/1278/content @EN{Scan in the Sandomierz Diocese Digital Library} @PL{Skany w portalu Cyfrowa Biblioteka Diecezjalna w Sandomierzu}
!!!IIIF:
!!!ONB-nifc: Str. 1, s. 3-5
!!!AIN: 1 piano
!!!key:
**kern	**kern
*part1	*part1
*staff2	*staff1
*Ipiano	*Iempty
*I"Piano	*
*clefF4	*clefC1
*k[]	*k[]
*C:	*C:
*M4/4	*M4/4
*met(c)	*met(c)
=1	=1
!	!LO:TX:b:i:t=Preludium
1c 1G 1E	2cc 2g 2e/
.	8e\L
.	8g\
.	8cc\
.	8e\J
=2	=2
*2\right	*
2B 2G 2F 2D\	8g\L
.	8f\
.	8dd\
.	8f\J
2B-X 2G 2E 2C\	8e\L
.	8g\
.	8cc\
.	8ee\J
=3	=3
*^	*
4A/	2C\	8ff\L
.	.	8ff\
4F/	.	8aa\
.	.	8bb\J
2c 2G 2E\	2ryy	8ccc\L
.	.	8gg\
.	.	8ee\
.	.	8gg\J
=4	=4	=4
2dn 2G 2F 2D\	2ryy	8ff\L
.	.	16gg\L
.	.	16aa\JJ
.	.	8gg\L
.	.	8ff\J
4c 4G/	2E\	8ee\L
.	.	8gg\
4B-X 4G 4C/	.	8ee\
.	.	8cc\J
*v	*v	*
=5	=5
4F\	8ff\L
.	16cc\L
.	16dd\JJ
4A\	16ff\LL
.	16ee-X\
.	16dd\
.	16cc\JJ
.	8qcc#X/
4d 4B-X 4F\	8dd\L
.	8b-X\J
.	8qcc#X/
4d 4A 4F#X\	8dd\L
.	8ccn\J
=6	=6
*^	*
*	*^	*
2f/	4d 4B\	2G\	8bn\L
.	.	.	8aa-X\
.	4rcyy	.	8gg\
.	.	.	8b\J
!!LO:LB:g=original
4c/	2G\	2rFFFyy	8cc\L
.	.	.	8ee-X\
4e-X/	.	.	8gg\
.	.	.	8b-X\J
=7	=7	=7	=7
2e-X/	4c 4A\	1F	8a\L
.	.	.	8gg-X\
.	4B-X\	.	8ff\
.	.	.	8a\J
2d-X/	2ryy	.	8b-X\L
.	.	.	8dd-X\
.	.	.	8ff\
.	.	.	8a-X\J
=8	=8	=8	=8
2d-X/	4B-X 4G\	1E-X	8g\L
.	.	.	8ee\
.	4ryy	.	8ee-X\
.	.	.	8g\J
2c-X 2A-X/	2ryy	.	8a-X\L
.	.	.	8cc-X\
.	.	.	8ee-X\
.	.	.	8g-X\J
*	*v	*v	*
=9	=9	=9
2B 2G#X 2E#X/	1C#X	8f\L
.	.	8ddn\
.	.	8cc#X\
.	.	8f\J
2A 2F#X/	.	8f#X\L
.	.	8a\
.	.	8cc#X\
.	.	8e\J
=10	=10	=10
2A 2F#X 2D#X/	1BB	8d#X\L
.	.	8cc\
.	.	8b\
.	.	8d#\J
2G 2E/	.	8e\L
.	.	8g\
.	.	8b\
.	.	8dn\J
=11	=11	=11
2G 2E 2C#X/	1AA	8c#X\L
.	.	8b-X\
.	.	8a\
.	.	8c#\J
2F 2D/	.	8d\L
.	.	8f\
.	.	8a\
.	.	8cn\J
!!LO:LB:g=original
=12	=12	=12
2F 2D 2BB/	1GG	8B/L
.	.	8b/
.	.	8a/
.	.	8B/J
2E 2C/	.	16e\LL
.	.	16c\
.	.	16d\
.	.	16e\JJ
.	.	16f\LL
.	.	16g\
.	.	16a\
.	.	16b\JJ
*v	*v	*
=13	=13
2E 2C/	16cc\LL
.	16g\
.	16a\
.	16b\JJ
.	16cc\LL
.	16dd\
.	16ee\
.	16ff\JJ
2G 2E/	8gg\L
.	8ee\
.	8cc\
.	8cc#X\J
=14	=14
2.A 2.F/	16dd\LL
.	16a\
.	16b\
.	16cc#X\JJ
.	16dd\LL
.	16ee\
.	16ff\
.	16gg\JJ
.	8aa\L
.	8ff\
4A 4F#X\	8dd\
!	!LO:SIC:v:s=ccn
.	8cc#\J
=15	=15
4G\	8b\L
.	8aa\
4Fn\	8gg\
.	8b\J
4E\	8cc\L
.	8ccc\
4c\	8gg\
.	8gg#X\J
=16	=16
*^	*
4F\	2rGGyy	8aa\L
.	.	8ff\
4d\	.	8ee\
.	.	8dd\J
4e/	2G\	4cc\
4d/	.	4b\
*v	*v	*
=17	=17
1C 1CC	1cc 1g 1e
==	==
*-	*-
!!!system-decoration: {s1,s2}
!!!ENC: Marta Lawrence
!!!END: 2020-12-13
!!!ENC: Marcin Jachim
!!!END: 2020-06-18
!!!YEC: Copyright 2022 Narodowy Instytut Fryderyka Chopina (https://polishscores.org)
!!!YEM: License CC-BY-4.0 (https://creativecommons.org/licenses/by/4.0)
